static/assets/img/icons/theme/electric/socket-us.svg

<svg height="24" viewBox="0 0 24 24" width="24" xmlns="http://www.w3.org/2000/svg"><g fill="none" fill-rule="evenodd"><path d="m0 0h24v24h-24z" opacity="0"/><path d="m5 4h14c.5522847 0 1 .44771525 1 1v14c0 .5522847-.4477153 1-1 1h-14c-.55228475 0-1-.4477153-1-1v-14c0-.55228475.44771525-1 1-1zm4 3c-.55228475 0-1 .44771525-1 1v3c0 .5522847.44771525 1 1 1s1-.4477153 1-1v-3c0-.55228475-.44771525-1-1-1zm3 8c-.8284271 0-1.5.6715729-1.5 1.5v1.5h3v-1.5c0-.8284271-.6715729-1.5-1.5-1.5zm3-8c-.5522847 0-1 .44771525-1 1v3c0 .5522847.4477153 1 1 1s1-.4477153 1-1v-3c0-.55228475-.4477153-1-1-1z" fill="#000"/></g></svg>

<svg width="24px" height="24px" viewBox="0 0 24 24" version="1.1" xmlns="http://www.w3.org/2000/svg" xmlns:xlink="http://www.w3.org/1999/xlink">
    <title>Icon For Socket-us</title>
    <g stroke="none" stroke-width="1" fill="none" fill-rule="evenodd">
        <rect opacity="0" x="0" y="0" width="24" height="24"></rect>
        <path d="M5,4 L19,4 C19.5522847,4 20,4.44771525 20,5 L20,19 C20,19.5522847 19.5522847,20 19,20 L5,20 C4.44771525,20 4,19.5522847 4,19 L4,5 C4,4.44771525 4.44771525,4 5,4 Z M9,7 C8.44771525,7 8,7.44771525 8,8 L8,11 C8,11.5522847 8.44771525,12 9,12 C9.55228475,12 10,11.5522847 10,11 L10,8 C10,7.44771525 9.55228475,7 9,7 Z M12,15 C11.1715729,15 10.5,15.6715729 10.5,16.5 L10.5,18 L13.5,18 L13.5,16.5 C13.5,15.6715729 12.8284271,15 12,15 Z M15,7 C14.4477153,7 14,7.44771525 14,8 L14,11 C14,11.5522847 14.4477153,12 15,12 C15.5522847,12 16,11.5522847 16,11 L16,8 C16,7.44771525 15.5522847,7 15,7 Z" fill="#000000"></path>
    </g>
</svg>
